src/assets/icons/months,simple,march-3.svg

<svg width="48" height="48" viewBox="0 0 48 48" fill="none" xmlns="http://www.w3.org/2000/svg">
<rect opacity="0.2" x="5" y="5" width="38" height="38" rx="4" fill="black"/>
<path d="M5 13C5 9.22876 5 7.34315 6.17157 6.17157C7.34315 5 9.22876 5 13 5H35C38.7712 5 40.6569 5 41.8284 6.17157C43 7.34315 43 9.22876 43 13V15H5V13Z" fill="black"/>
<path d="M6.45668 23.3636V35H8.84304V27.3977H8.93963L11.951 34.9432H13.576L16.5874 27.4261H16.6839V35H19.0703V23.3636H16.0362L12.8317 31.1818H12.6953L9.49077 23.3636H6.45668ZM23.103 35L23.9666 32.3466H28.1655L29.0291 35H31.6655L27.6541 23.3636H24.4837L20.4666 35H23.103ZM24.5916 30.4261L26.0234 26.0227H26.1143L27.5462 30.4261H24.5916ZM33.0661 35H35.5263V30.875H37.3217L39.5263 35H42.2422L39.7706 30.4773C41.0945 29.9091 41.8274 28.7557 41.8274 27.1648C41.8274 24.8523 40.299 23.3636 37.657 23.3636H33.0661V35ZM35.5263 28.8977V25.375H37.1854C38.6058 25.375 39.2933 26.0057 39.2933 27.1648C39.2933 28.3182 38.6058 28.8977 37.1967 28.8977H35.5263Z" fill="black"/>
</svg>

<svg xmlns="http://www.w3.org/2000/svg" width="48" height="48" fill="none" viewBox="0 0 48 48">
  <rect width="38" height="38" x="5" y="5" fill="#000" opacity=".2" rx="4"/>
  <path fill="#000" d="M5 13c0-3.771 0-5.657 1.172-6.828C7.343 5 9.229 5 13 5h22c3.771 0 5.657 0 6.828 1.172C43 7.343 43 9.229 43 13v2H5v-2zM6.457 23.364V35h2.386v-7.602h.097l3.011 7.545h1.625l3.011-7.517h.097V35h2.386V23.364h-3.034l-3.204 7.818h-.137l-3.204-7.818H6.457zM23.103 35l.864-2.653h4.199L29.029 35h2.637l-4.012-11.636h-3.17L20.467 35h2.636zm1.489-4.574l1.431-4.403h.091l1.432 4.403h-2.954zM33.066 35h2.46v-4.125h1.796L39.526 35h2.716l-2.471-4.523c1.323-.568 2.056-1.721 2.056-3.312 0-2.313-1.528-3.801-4.17-3.801h-4.59V35zm2.46-6.102v-3.523h1.66c1.42 0 2.107.63 2.107 1.79 0 1.153-.687 1.733-2.096 1.733h-1.67z"/>
</svg>
